X: 1
T: Primrose Polka
S: http://lesters-tune-a-day.blogspot.co.uk/2013/04/tune-232-primrose-polka.html
M: 2/4
L: 1/8
K: G
d2 "A"|\
Bc^cd edcd |\
b2 g2 b2 g2 |\
Bc^cd edcd |\
A6 A2 |
ABcd ed^cd |\
a2 f2 f2 e2 |\
defe dcBA |\
[1 B6 :|\
[2 G6 |]
"B"|: d2 |\
B4 Bc^cd |\
b6 a2 |\
gdBd g4 |\
ff e2 e4 |\
[1 A4 ABcd |\
f6 e2 |
defe dcBA |\
B6 :|\
[2 c'bab c'2 c'2 |\
baga b2 b2 |\
agfg adef |\
g2 b2 g2 |]
"C"|: b2 |\
bagf g2d2 |\
bagf g2d2 |\
edef g2e2 |\
d6 B2 |\
[1 cBcd e2 c2 |\
BABc d2 B2 |
^c2 c2 cABc |\
d2 e2 f2 :|\
[2 edeg c'2 e2 |\
d^cdg b2 g2 |\
fd^cd e2 f2 |\
g6 |]
